X:135
M:2/4
L:1/8
K:G
|: g2gb | agfd | efge | dcBG | g2 gb | agfd | egfa | g4 :|
|: B2 (3BGB | A2 (3AFA | B2 (3BGB | (3BdB A2 | G2 (3BGB | A2 (3AFA | (3BdB (3AcA | G2G2 :|

